Suru++-Ubuntu/apps/scalable/jdownloader.svg

<svg width="256" height="256" version="1.1" viewBox="0 0 67.73 67.73" xmlns="http://www.w3.org/2000/svg" xmlns:xlink="http://www.w3.org/1999/xlink">
 <defs>
  <linearGradient id="linearGradient1108" x1="296" x2="296" y1="-212" y2="236" gradientUnits="userSpaceOnUse">
   <stop style="stop-color:#ffffff" offset="0"/>
   <stop style="stop-color:#ffffff;stop-opacity:.09803922" offset=".125"/>
   <stop style="stop-color:#000000;stop-opacity:.09803922" offset=".925"/>
   <stop style="stop-color:#000000;stop-opacity:.49803922" offset="1"/>
  </linearGradient>
  <clipPath id="clipPath1082-3-59">
   <path d="M 361.9375,-212 C 507.2348,-212 528,-191.28677 528,-46.125 V 70.125 C 528,215.28618 507.2348,236 361.9375,236 H 214.0625 C 68.7652,236 48,215.28618 48,70.125 V -46.125 C 48,-191.28677 68.7652,-212 214.0625,-212 Z" style="fill:#8c59d9"/>
  </clipPath>
  <clipPath id="clipPath936-0">
   <path d="M 329.9375,16 C 475.2348,16 496,36.71323 496,181.875 v 116.25 C 496,443.28618 475.2348,464 329.9375,464 H 182.0625 C 36.7652,464 16,443.28618 16,298.125 V 181.875 C 16,36.71323 36.7652,16 182.0625,16 Z" style="fill:#438ae9"/>
  </clipPath>
  <linearGradient id="linearGradient1048" x1="24" x2="280" y1="28" y2="284" gradientTransform="matrix(.26970778 0 0 .26970778 -7.1289177 220.56049)" gradientUnits="userSpaceOnUse">
   <stop style="stop-color:#006064" offset="0"/>
   <stop style="stop-color:#20989d" offset="1"/>
  </linearGradient>
  <filter id="filter4569" x="-.01" y="-.01" width="1.023" height="1.025" style="color-interpolation-filters:sRGB">
   <feGaussianBlur stdDeviation="1.16"/>
  </filter>
  <filter id="filter1029" x="-.02" y="-.03" width="1.046" height="1.05" style="color-interpolation-filters:sRGB">
   <feGaussianBlur stdDeviation="2.32"/>
  </filter>
  <filter id="filter965" x="-.05" y="-.05" width="1.096" height="1.097" style="color-interpolation-filters:sRGB">
   <feGaussianBlur stdDeviation="4.573"/>
  </filter>
 </defs>
 <g transform="translate(0,-229.26666)">
  <path transform="matrix(.26970778 0 0 .26970778 -7.1289177 220.56049)" d="m188.96876 45.999995c72.64865 0 83.03125 10.356615 83.03125 82.937505v58.125c0 72.58059-10.3826 82.9375-83.03125 82.9375h-73.9375c-72.648654 0-83.031254-10.35691-83.031254-82.9375v-58.125c0-72.58089 10.3826-82.937505 83.031254-82.937505z" style="filter:url(#filter1029);opacity:.2"/>
  <path transform="matrix(.26970778 0 0 .26970778 -7.1289177 220.56049)" d="m188.96876 43.999995c72.64865 0 83.03125 10.356615 83.03125 82.937505v58.125c0 72.58059-10.3826 82.9375-83.03125 82.9375h-73.9375c-72.648654 0-83.031254-10.35691-83.031254-82.9375v-58.125c0-72.58089 10.3826-82.937505 83.031254-82.937505z" style="filter:url(#filter4569);opacity:.1"/>
  <path d="m43.837425 232.42763c19.593907 0 22.394175 2.79326 22.394175 22.36889v15.67677c0 19.57555-2.800268 22.36888-22.394175 22.36888h-19.94152c-19.593906 0-22.394174-2.79333-22.394174-22.36888v-15.67677c0-19.57563 2.8002681-22.36889 22.394174-22.36889z" style="fill:url(#linearGradient1048)"/>
  <path d="m33.866444 232.4381v60.41455h9.970762c19.593907 0 22.394175-2.79334 22.394175-22.36889v-15.67677c0-19.57563-2.800268-22.36889-22.394175-22.36889z" style="fill:#ffffff;opacity:.1"/>
  <path d="m23.895685 292.85265c-19.593906 0-22.394175-2.64319-22.394175-21.16712v-7.41727h64.729871v7.41727c0 18.52393-2.800268 21.16712-22.394175 21.16712z" style="fill:#ffffff;opacity:.1"/>
  <path d="m33.866444 232.4381v60.41455h9.970762c19.593907 0 22.394175-2.79334 22.394175-22.36889v-15.67677c0-19.57563-2.800268-22.36889-22.394175-22.36889z" style="fill:#ffffff;opacity:.1"/>
  <g transform="matrix(.15086879 0 0 .15086879 -4.251665 225.88197)" clip-path="url(#clipPath936-0)" style="enable-background:new;fill:#b8e019">
   <g transform="matrix(1.2557787,0,0,1.2557787,-767.43435,682.46354)" style="enable-background:new;fill:#b8e019;opacity:.6">
    <path d="m733.72415-333.67241h25.51724l10.20689 10.2069h20.4138l10.20689 10.20689v20.41379l-7.65517 7.65517v7.65518l-15.31034 15.31034v10.2069l-33.17242 30.62069 0.06896 13.39655-7.72413-8.2931v-33.17242l7.65517-7.65517 0.06896-22.87931-20.48275-17.94827v-25.51724z" style="fill:#b8e019"/>
    <path transform="matrix(1.396529,0,0,1.396529,633.56351,-525.59331)" d="m108.26562 82.611328-5.48242 5.482422h5.48242l1.82618 1.826172h1.82812l1.82617-1.826172-5.48047-5.482422z" style="fill:#b8e019"/>
    <path transform="matrix(1.396529,0,0,1.396529,633.56351,-525.59331)" d="m14.833984 33.804688c-0.6464 1.124102-1.341883 2.183676-1.904296 3.421874-0.96095 2.115608-1.802833 4.401935-2.539063 6.871094-0.7362301 2.469159-1.3669615 5.122176-1.9042969 7.970703-0.5373353 2.848527-0.9814382 5.892773-1.3457031 9.146485-0.3642649 3.253711-0.6482155 6.715678-0.8652344 10.40039-0.1376131 2.336502-0.1025622 5.368434-0.1894531 7.886719l5.3378905 4.9375v18.271487l20.09961 20.09765h10.96289l18.271484 18.27344v-21.92773l10.962891-10.96289h7.308594l10.962891-10.962894h10.964842l-5.482421-5.480469 10.962891-12.791016-10.962891-10.96289h-16.445312v14.617187h-7.308594l-7.308594-7.308594v-7.308593l10.962891-10.962891h9.136719v-7.308594l-10.962891-10.96289h-18.271484v10.96289h-9.136719l-14.617187-14.61914h-14.617188l-2.072266-1.298828z" style="fill:#b8e019"/>
    <path d="m881.72414-374.5h-30.62069l-17.86206 17.86207v25.51724l12.75862 12.75862h17.86207l7.65517 7.65518v7.65517l5.10345 5.10345v30.62069l19.37931 20.48276 32-32-0.34483-29.31035 25.51724-25.51724h-10.2069l-25.51724-25.51724v-10.2069h-30.62069z" style="fill:#b8e019"/>
    <path transform="matrix(1.396529,0,0,1.396529,633.56351,-525.59331)" d="m250.32422 115.5v-19.009766c0-9.248329-0.16557-17.505574-0.59961-24.875-0.21702-3.684712-0.50097-7.146679-0.86523-10.40039-0.36427-3.253712-0.80837-6.297958-1.34571-9.146485-0.53733-2.848527-1.16806-5.501544-1.90429-7.970703-0.73624-2.469159-1.57812-4.755486-2.53907-6.871094-0.34881-0.767942-0.79894-1.39937-1.17969-2.123046h-2.06835l-7.3086 7.310546h-10.96289l-10.96289 10.962891-7.30859-7.308594h-21.92578l-10.96485 10.962891v9.134766h10.96289v-5.480469h7.31055v7.308594l-3.6543 3.654297-14.61914 0.246093-5.48047 5.234375h-7.30859v7.310547l-5.48242 5.480469v10.962888h10.96289l7.30859-7.308591h7.3086v3.654297l7.31054 7.308594h3.6543v-3.6543l-7.31055-7.308591h7.31055l7.30859 7.308591h9.13477l-5.48047-5.480466 5.48047-5.482422h5.48242l5.48047 5.482422h-5.48047l-5.48242 5.480466 5.38281 5.38281 0.09961 5.58008h-7.30859l21.92578 21.92774h3.6543l3.65429-3.6543 7.3086-7.31055-7.3086-7.30859h17.81055z" style="fill:#b8e019"/>
    <path d="m856.2069-422.98275v-7.65518l7.65518-7.65517v15.31035z" style="fill:#b8e019"/>
    <path d="m935.31035-272.43103v-16l10.2069-9.51724v25.51724z" style="fill:#b8e019"/>
    <path d="m805.17242-435.74137v-10.2069l15.31035-15.31034v-10.2069l10.20689-10.2069v-15.31034l-10.20689-10.2069h-40.82759l-17.86207 20.41379 15.31035 15.31035v16l17.86206 19.72414z" style="fill:#b8e019"/>
    <path transform="matrix(1.396529,0,0,1.396529,633.56351,-525.59331)" d="m57.783203 13.177734c-0.899464 0.085909-1.90989 0.133411-2.779297 0.230469-3.257066 0.363609-6.304674 0.807305-9.15625 1.34375-0.515834 0.09704-0.940294 0.240556-1.443359 0.34375l16.353515 16.353516h18.271485v-18.271485h-21.246094z" style="fill:#b8e019"/>
    <path d="m817.93104-440.84482h7.65518l7.65517 7.65517-15.31035 1e-5z" style="fill:#b8e019"/>
    <path d="m749.03449-356.63794h-7.65518l-7.65517 7.65517 15.31035 1e-5z" style="fill:#b8e019"/>
   </g>
  </g>
  <g transform="matrix(.01892874 .22166005 .25302099 -.02160682 -95.240405 212.61533)">
   <path d="m136.5666 471.81135-1.38489-14.20734c-0.93675-9.6099-1.57818-18.2043-1.81134-25.90071-0.11659-3.84821-0.13194-7.47214-0.0307-10.88562 0.10128-3.41349 0.31866-6.61662 0.66579-9.62448 0.0957-0.82901 0.28202-1.52986 0.39773-2.32947 2.14229 16.74251 5.3631 32.53449 10.01087 47.06926 7.205 22.53 18.84735 40.22136 36.81235 53.74636 52.018 39.16 153.36916 16.57224 153.36916 16.57224l-4.6328-32.84206 72.91865 42.77767-58.59709 58.77426-3.85036-27.30243s-100.34548 18.52759-163.90349-34.88241c-18.41723-15.47656-31.53355-35.94308-39.96393-60.96527z" style="clip-rule:evenodd;fill-rule:evenodd;fill:#0a0a0a;filter:url(#filter965);opacity:.3"/>
   <path transform="matrix(.10119378 1.0381268 1.1850032 -.08865121 111.00327 368.1088)" d="m104 11.947266h-13.685547c-9.256963 0-17.521677 0.164477-24.898437 0.597656-3.688381 0.216589-7.155044 0.499672-10.41211 0.863281s-6.304674 0.807305-9.15625 1.34375c-0.785941 0.147853-1.442829 0.361205-2.199218 0.523438 16.164119 0.4275 31.496407 1.836167 45.728515 4.542968 22.060897 4.196255 39.812047 12.505129 54.031247 26.451172 41.17016 40.381188 26.82032 127.13477 26.82032 127.13477l-31.73829-1.19922 46.125 57.5957 52.01368-53.89062-26.38477-0.9961s10.53904-85.57949-45.08398-134.46484c-16.11783-14.165537-36.62832-23.482632-61.16016-28.501953z" style="clip-rule:evenodd;fill-rule:evenodd;fill:#ffbb00"/>
  </g>
  <path transform="matrix(.13485389 0 0 .13485389 -4.9712559 261.01666)" d="m361.9375-212c145.2973 0 166.0625 20.71323 166.0625 165.875v116.25c0 145.16118-20.7652 165.875-166.0625 165.875h-147.875c-145.2973 0-166.0625-20.71382-166.0625-165.875v-116.25c0-108.02076 11.498629-147.12874 77.25452-160.06956 2.1837-0.42975 4.42723-0.83065 6.73217-1.20425 21.55932-3.4945 48.49076-4.60119 82.07581-4.60119z" clip-path="url(#clipPath1082-3-59)" style="fill:none;opacity:.4;stroke-linecap:round;stroke-linejoin:round;stroke-width:8;stroke:url(#linearGradient1108)"/>
 </g>
</svg>

<svg xmlns="http://www.w3.org/2000/svg" xmlns:xlink="http://www.w3.org/1999/xlink" width="256" height="256" version="1.1" viewBox="0 0 67.73 67.73">
 <defs>
  <linearGradient id="linearGradient1108" x1="296" x2="296" y1="-212" y2="236" gradientUnits="userSpaceOnUse" xlink:href="#linearGradient1013"/>
  <linearGradient id="linearGradient1013">
   <stop offset="0" style="stop-color:#ffffff"/>
   <stop style="stop-color:#ffffff;stop-opacity:0.09803922" offset=".125"/>
   <stop style="stop-color:#000000;stop-opacity:0.09803922" offset=".925"/>
   <stop offset="1" style="stop-color:#000000;stop-opacity:0.49803922"/>
  </linearGradient>
  <clipPath id="clipPath1082-3-59" clipPathUnits="userSpaceOnUse">
   <path d="M 361.9375,-212 C 507.2348,-212 528,-191.28677 528,-46.125 V 70.125 C 528,215.28618 507.2348,236 361.9375,236 H 214.0625 C 68.7652,236 48,215.28618 48,70.125 V -46.125 C 48,-191.28677 68.7652,-212 214.0625,-212 Z" style="fill:#8c59d9"/>
  </clipPath>
  <clipPath id="clipPath936-0" clipPathUnits="userSpaceOnUse">
   <path d="M 329.9375,16 C 475.2348,16 496,36.71323 496,181.875 v 116.25 C 496,443.28618 475.2348,464 329.9375,464 H 182.0625 C 36.7652,464 16,443.28618 16,298.125 V 181.875 C 16,36.71323 36.7652,16 182.0625,16 Z" style="fill:#438ae9"/>
  </clipPath>
  <linearGradient id="linearGradient1048" x1="24" x2="280" y1="28" y2="284" gradientTransform="matrix(0.26970778,0,0,0.26970778,-7.1289177,220.56049)" gradientUnits="userSpaceOnUse" xlink:href="#linearGradient4195"/>
  <linearGradient id="linearGradient4195">
   <stop style="stop-color:#006064" offset="0"/>
   <stop style="stop-color:#20989d" offset="1"/>
  </linearGradient>
  <filter style="color-interpolation-filters:sRGB" id="filter4569" width="1.023" height="1.025" x="-.01" y="-.01">
   <feGaussianBlur stdDeviation="1.16"/>
  </filter>
  <filter style="color-interpolation-filters:sRGB" id="filter1029" width="1.046" height="1.05" x="-.02" y="-.03">
   <feGaussianBlur stdDeviation="2.32"/>
  </filter>
  <filter style="color-interpolation-filters:sRGB" id="filter965" width="1.096" height="1.097" x="-.05" y="-.05">
   <feGaussianBlur stdDeviation="4.573"/>
  </filter>
 </defs>
 <g transform="translate(0,-229.26666)">
  <path style="opacity:0.2;filter:url(#filter1029)" d="m 188.96876,45.999995 c 72.64865,0 83.03125,10.356615 83.03125,82.937505 v 58.125 c 0,72.58059 -10.3826,82.9375 -83.03125,82.9375 h -73.9375 C 42.382606,270 32.000006,259.64309 32.000006,187.0625 v -58.125 c 0,-72.58089 10.3826,-82.937505 83.031254,-82.937505 z" transform="matrix(0.26970778,0,0,0.26970778,-7.1289177,220.56049)"/>
  <path d="m 188.96876,43.999995 c 72.64865,0 83.03125,10.356615 83.03125,82.937505 v 58.125 c 0,72.58059 -10.3826,82.9375 -83.03125,82.9375 h -73.9375 C 42.382606,268 32.000006,257.64309 32.000006,185.0625 v -58.125 c 0,-72.58089 10.3826,-82.937505 83.031254,-82.937505 z" transform="matrix(0.26970778,0,0,0.26970778,-7.1289177,220.56049)" style="opacity:0.1;filter:url(#filter4569)"/>
  <path style="fill:url(#linearGradient1048)" d="m 43.837425,232.42763 c 19.593907,0 22.394175,2.79326 22.394175,22.36889 v 15.67677 c 0,19.57555 -2.800268,22.36888 -22.394175,22.36888 h -19.94152 c -19.5939058,0 -22.3941739,-2.79333 -22.3941739,-22.36888 v -15.67677 c 0,-19.57563 2.8002681,-22.36889 22.3941739,-22.36889 z"/>
  <path style="opacity:0.1;fill:#ffffff" d="m 33.866444,232.4381 v 60.41455 h 9.970762 c 19.593907,0 22.394175,-2.79334 22.394175,-22.36889 v -15.67677 c 0,-19.57563 -2.800268,-22.36889 -22.394175,-22.36889 z"/>
  <path style="opacity:0.1;fill:#ffffff" d="m 23.895685,292.85265 c -19.5939063,0 -22.3941746,-2.64319 -22.3941746,-21.16712 v -7.41727 H 66.231381 v 7.41727 c 0,18.52393 -2.800268,21.16712 -22.394175,21.16712 z"/>
  <path d="m 33.866444,232.4381 v 60.41455 h 9.970762 c 19.593907,0 22.394175,-2.79334 22.394175,-22.36889 v -15.67677 c 0,-19.57563 -2.800268,-22.36889 -22.394175,-22.36889 z" style="opacity:0.1;fill:#ffffff"/>
  <g style="fill:#b8e019;enable-background:new" clip-path="url(#clipPath936-0)" transform="matrix(0.15086879,0,0,0.15086879,-4.251665,225.88197)">
   <g transform="matrix(1.2557787,0,0,1.2557787,-767.43435,682.46354)" style="opacity:0.6;fill:#b8e019;enable-background:new">
    <path d="m 733.72415,-333.67241 h 25.51724 l 10.20689,10.2069 h 20.4138 l 10.20689,10.20689 v 20.41379 l -7.65517,7.65517 v 7.65518 l -15.31034,15.31034 v 10.2069 L 743.93104,-221.39655 744,-208 l -7.72413,-8.2931 v -33.17242 l 7.65517,-7.65517 L 744,-280 723.51725,-297.94827 v -25.51724 z" style="fill:#b8e019"/>
    <path style="fill:#b8e019" d="M 108.26562 82.611328 L 102.7832 88.09375 L 108.26562 88.09375 L 110.0918 89.919922 L 111.91992 89.919922 L 113.74609 88.09375 L 108.26562 82.611328 z" transform="matrix(1.396529,0,0,1.396529,633.56351,-525.59331)"/>
    <path style="fill:#b8e019" d="M 14.833984 33.804688 C 14.187584 34.92879 13.492101 35.988364 12.929688 37.226562 C 11.968738 39.34217 11.126855 41.628497 10.390625 44.097656 C 9.6543949 46.566815 9.0236635 49.219832 8.4863281 52.068359 C 7.9489928 54.916886 7.5048899 57.961132 7.140625 61.214844 C 6.7763601 64.468555 6.4924095 67.930522 6.2753906 71.615234 C 6.1377775 73.951736 6.1728284 76.983668 6.0859375 79.501953 L 11.423828 84.439453 L 11.423828 102.71094 L 31.523438 122.80859 L 42.486328 122.80859 L 60.757812 141.08203 L 60.757812 119.1543 L 71.720703 108.19141 L 79.029297 108.19141 L 89.992188 97.228516 L 100.95703 97.228516 L 95.474609 91.748047 L 106.4375 78.957031 L 95.474609 67.994141 L 79.029297 67.994141 L 79.029297 82.611328 L 71.720703 82.611328 L 64.412109 75.302734 L 64.412109 67.994141 L 75.375 57.03125 L 84.511719 57.03125 L 84.511719 49.722656 L 73.548828 38.759766 L 55.277344 38.759766 L 55.277344 49.722656 L 46.140625 49.722656 L 31.523438 35.103516 L 16.90625 35.103516 L 14.833984 33.804688 z" transform="matrix(1.396529,0,0,1.396529,633.56351,-525.59331)"/>
    <path d="m 881.72414,-374.5 h -30.62069 l -17.86206,17.86207 v 25.51724 l 12.75862,12.75862 h 17.86207 l 7.65517,7.65518 v 7.65517 l 5.10345,5.10345 v 30.62069 l 19.37931,20.48276 32,-32 -0.34483,-29.31035 25.51724,-25.51724 h -10.2069 l -25.51724,-25.51724 v -10.2069 h -30.62069 z" style="fill:#b8e019"/>
    <path style="fill:#b8e019" d="M 250.32422 115.5 L 250.32422 96.490234 C 250.32422 87.241905 250.15865 78.98466 249.72461 71.615234 C 249.50759 67.930522 249.22364 64.468555 248.85938 61.214844 C 248.49511 57.961132 248.05101 54.916886 247.51367 52.068359 C 246.97634 49.219832 246.34561 46.566815 245.60938 44.097656 C 244.87314 41.628497 244.03126 39.34217 243.07031 37.226562 C 242.7215 36.45862 242.27137 35.827192 241.89062 35.103516 L 239.82227 35.103516 L 232.51367 42.414062 L 221.55078 42.414062 L 210.58789 53.376953 L 203.2793 46.068359 L 181.35352 46.068359 L 170.38867 57.03125 L 170.38867 66.166016 L 181.35156 66.166016 L 181.35156 60.685547 L 188.66211 60.685547 L 188.66211 67.994141 L 185.00781 71.648438 L 170.38867 71.894531 L 164.9082 77.128906 L 157.59961 77.128906 L 157.59961 84.439453 L 152.11719 89.919922 L 152.11719 100.88281 L 163.08008 100.88281 L 170.38867 93.574219 L 177.69727 93.574219 L 177.69727 97.228516 L 185.00781 104.53711 L 188.66211 104.53711 L 188.66211 100.88281 L 181.35156 93.574219 L 188.66211 93.574219 L 195.9707 100.88281 L 205.10547 100.88281 L 199.625 95.402344 L 205.10547 89.919922 L 210.58789 89.919922 L 216.06836 95.402344 L 210.58789 95.402344 L 205.10547 100.88281 L 210.48828 106.26562 L 210.58789 111.8457 L 203.2793 111.8457 L 225.20508 133.77344 L 228.85938 133.77344 L 232.51367 130.11914 L 239.82227 122.80859 L 232.51367 115.5 L 250.32422 115.5 z" transform="matrix(1.396529,0,0,1.396529,633.56351,-525.59331)"/>
    <path d="m 856.2069,-422.98275 v -7.65518 l 7.65518,-7.65517 v 15.31035 z" style="fill:#b8e019"/>
    <path style="fill:#b8e019" d="m 935.31035,-272.43103 v -16 l 10.2069,-9.51724 v 25.51724 z"/>
    <path d="m 805.17242,-435.74137 v -10.2069 l 15.31035,-15.31034 v -10.2069 l 10.20689,-10.2069 v -15.31034 l -10.20689,-10.2069 h -40.82759 l -17.86207,20.41379 15.31035,15.31035 v 16 l 17.86206,19.72414 z" style="fill:#b8e019"/>
    <path style="fill:#b8e019" d="M 57.783203 13.177734 C 56.883739 13.263643 55.873313 13.311145 55.003906 13.408203 C 51.74684 13.771812 48.699232 14.215508 45.847656 14.751953 C 45.331822 14.848993 44.907362 14.992509 44.404297 15.095703 L 60.757812 31.449219 L 79.029297 31.449219 L 79.029297 13.177734 L 57.783203 13.177734 z" transform="matrix(1.396529,0,0,1.396529,633.56351,-525.59331)"/>
    <path style="fill:#b8e019" d="m 817.93104,-440.84482 h 7.65518 l 7.65517,7.65517 -15.31035,10e-6 z"/>
    <path d="m 749.03449,-356.63794 h -7.65518 l -7.65517,7.65517 15.31035,1e-5 z" style="fill:#b8e019"/>
   </g>
  </g>
  <g transform="matrix(0.01892874,0.22166005,0.25302099,-0.02160682,-95.240405,212.61533)">
   <path d="m 136.5666,471.81135 -1.38489,-14.20734 c -0.93675,-9.6099 -1.57818,-18.2043 -1.81134,-25.90071 -0.11659,-3.84821 -0.13194,-7.47214 -0.0307,-10.88562 0.10128,-3.41349 0.31866,-6.61662 0.66579,-9.62448 0.0957,-0.82901 0.28202,-1.52986 0.39773,-2.32947 2.14229,16.74251 5.3631,32.53449 10.01087,47.06926 7.205,22.53 18.84735,40.22136 36.81235,53.74636 52.018,39.16 153.36916,16.57224 153.36916,16.57224 l -4.6328,-32.84206 72.91865,42.77767 -58.59709,58.77426 -3.85036,-27.30243 c 0,0 -100.34548,18.52759 -163.90349,-34.88241 -18.41723,-15.47656 -31.53355,-35.94308 -39.96393,-60.96527 z" style="clip-rule:evenodd;fill:#0a0a0a;fill-rule:evenodd;opacity:0.3;filter:url(#filter965)"/>
   <path style="clip-rule:evenodd;fill-rule:evenodd;fill:#ffbb00" d="M 104 11.947266 L 90.314453 11.947266 C 81.05749 11.947266 72.792776 12.111743 65.416016 12.544922 C 61.727635 12.761511 58.260972 13.044594 55.003906 13.408203 C 51.74684 13.771812 48.699232 14.215508 45.847656 14.751953 C 45.061715 14.899806 44.404827 15.113158 43.648438 15.275391 C 59.812557 15.702891 75.144845 17.111558 89.376953 19.818359 C 111.43785 24.014614 129.189 32.323488 143.4082 46.269531 C 184.57836 86.650719 170.22852 173.4043 170.22852 173.4043 L 138.49023 172.20508 L 184.61523 229.80078 L 236.62891 175.91016 L 210.24414 174.91406 C 210.24414 174.91406 220.78318 89.33457 165.16016 40.449219 C 149.04233 26.283682 128.53184 16.966587 104 11.947266 z" transform="matrix(0.10119378,1.0381268,1.1850032,-0.08865121,111.00327,368.1088)"/>
  </g>
  <path d="M 361.9375,-212 C 507.2348,-212 528,-191.28677 528,-46.125 V 70.125 C 528,215.28618 507.2348,236 361.9375,236 H 214.0625 C 68.7652,236 48,215.28618 48,70.125 v -116.25 c 0,-108.02076 11.498629,-147.12874 77.25452,-160.06956 2.1837,-0.42975 4.42723,-0.83065 6.73217,-1.20425 C 153.54601,-210.89331 180.47745,-212 214.0625,-212 Z" clip-path="url(#clipPath1082-3-59)" transform="matrix(0.13485389,0,0,0.13485389,-4.9712559,261.01666)" style="opacity:0.4;fill:none;stroke:url(#linearGradient1108);stroke-width:8;stroke-linecap:round;stroke-linejoin:round"/>
 </g>
</svg>
